src/cmd/sc_solidcreate.svg

<svg viewBox="0 0 16 16" xmlns="http://www.w3.org/2000/svg">/&amp;gt;<path d="m10.398438 2-5.1113286 5.1113281-3.2871094 3.2871099v3.601562h3v-1.080078h-1.1992188l-.7207031-.720703v-1.441407l1.1933594-1.1933589v1.6210939h.7265625v-.185547h3.6015625l5.3984375-5.3984375zm-2.0488286 3.4902344 2.1601566 2.1601562-3.1738285 3.1757814v-.675781l-1.0136719.021484h-1.0351562v-1.0351562-.5859376l1.4414062-1.4394531z" fill="#232629"/><path d="m7 12c-.5522847 0-1 .447715-1 1s.4477153 1 1 1 1-.447715 1-1-.4477153-1-1-1zm3 0c-.5522847 0-1 .447723-1 1s.4477153 1 1 1c.552285 0 1-.447723 1-1s-.447715-1-1-1zm3 0c-.552285 0-1 .447723-1 1s.447715 1 1 1 1-.447723 1-1-.447715-1-1-1z" fill="#e95420"/></svg>

<?xml version="1.0" encoding="UTF-8" standalone="no"?>
<svg
   xmlns:dc="http://purl.org/dc/elements/1.1/"
   xmlns:cc="http://creativecommons.org/ns#"
   xmlns:rdf="http://www.w3.org/1999/02/22-rdf-syntax-ns#"
   xmlns:svg="http://www.w3.org/2000/svg"
   xmlns="http://www.w3.org/2000/svg"
   xmlns:sodipodi="http://sodipodi.sourceforge.net/DTD/sodipodi-0.dtd"
   xmlns:inkscape="http://www.inkscape.org/namespaces/inkscape"
   viewBox="0 0 16 16"
   version="1.1"
   id="svg6"
   sodipodi:docname="sc_solidcreate.svg"
   inkscape:version="0.92.4 (5da689c313, 2019-01-14)"><metadata
   id="metadata12">
  <rdf:RDF>
    <cc:Work
       rdf:about="">
      <dc:format>image/svg+xml</dc:format>
      <dc:type
         rdf:resource="http://purl.org/dc/dcmitype/StillImage" />
    </cc:Work>
  </rdf:RDF>
</metadata>
<defs
   id="defs10" />
<sodipodi:namedview
   pagecolor="#ffffff"
   bordercolor="#666666"
   borderopacity="1"
   objecttolerance="10"
   gridtolerance="10"
   guidetolerance="10"
   inkscape:pageopacity="0"
   inkscape:pageshadow="2"
   inkscape:window-width="1920"
   inkscape:window-height="1011"
   id="namedview8"
   showgrid="true"
   inkscape:zoom="41.7193"
   inkscape:cx="8.4678627"
   inkscape:cy="6.5715032"
   inkscape:window-x="0"
   inkscape:window-y="32"
   inkscape:window-maximized="1"
   inkscape:current-layer="svg6">
  <inkscape:grid
     type="xygrid"
     id="grid822" />
</sodipodi:namedview>
/&amp;gt;<path
   inkscape:connector-curvature="0"
   style="fill:#232629"
   d="M 10.398438,2 5.2871094,7.1113281 2,10.398438 V 14 H 5.6015625 L 14,5.6015625 Z M 8.3496094,5.4902344 10.509766,7.6503906 7.3359375,10.826172 v -0.675781 l -1.0136719,0.02148 H 5.2871094 V 9.1367188 8.5507812 L 6.7285156,7.1113281 Z M 4.2734375,9.5644531 v 1.6210939 h 1.0351563 0.9921874 l 0.021484,0.652344 -1.0800781,1.082031 H 3.8007812 L 3.0800781,12.199219 v -1.441407 z"
   id="path2" />
</svg>
